src/bright/hiso font bright_h.svg

<svg xmlns="http://www.w3.org/2000/svg" width="90" height="126" viewBox="0 0 90 126"><path fill="#000101" d="M33 7.5v36l-33-16.5v72l36 18v-36l36 18v-72l-39-19.5zm3 70.14v-29.29l29.29 14.65-29.29 14.64zm33 16.51l-29.641-14.82 29.641-14.83v29.65zm0-32.65l-33-16.5v-32.65l33 16.5v32.65z"/></svg>

<svg xmlns="http://www.w3.org/2000/svg" width="90" height="126"><path fill="#000101" d="M33 7.5v36L0 27v72l36 18V81l36 18V27L33 7.5zm3 70.14V48.35L65.29 63 36 77.64zm33 16.51L39.359 79.33 69 64.5v29.65zm0-32.65L36 45V12.35l33 16.5V61.5z"/></svg>
